X: 1424
T: Fair Land Of Poland
B: australian traditional tunes wiki
M:C
L:1/8
R: March
Q: 1/4=100
K:G
V:1 
d>d|"C"e2f>e "G"d2G>A|"Em"B2c>e "C"g2g>e|"G"d2d>c "D7"B<c A>B|"G"G2 (3GGG G2 d>d|
"C"e2f>e "G"d2G>A|"Em"B2c>e "C"g2g>e|"D"d2d>e "A7"d>^c f>e|"D7"d2(3ddd d2d>d||
"C"e2e>fg2f>e|"D7"d2d>ef2e>d|"Am"e>cA2A2B>A|"D7"d2(3ddd d2d>d|
"C"e2f>e"G"d2G>A|"Em"B2c>e"C"g2g>e|"G"d2d>c "D7"B<c A>B|"G"G2(3GGG G2||
% abcbook-tune_id 6342d53a6a43833eadcc7f68


% abcbook-boost 0
% abcbook-tablature 
% abcbook-transpose 
% abcbook-lastupdated 1665324364434
% abcbook-soundfonts 
% abcbook-repeats 1
% NFF Book 2007

